docs/images/icons/MODX.svg

<svg width="50" height="50" viewBox="0 0 50 50" fill="none" xmlns="http://www.w3.org/2000/svg">
<g id="MODX_Logo_SVG 1" clip-path="url(#clip0_49_93)">
<g id="Group">
<g id="Group_2">
<path id="Vector" d="M38.207 20.9247L48.2611 4.83939H24.0782L20.7363 10.2L38.207 20.9247Z" fill="url(#paint0_linear_49_93)"/>
<path id="Vector_2" opacity="0.15" d="M20.7384 10.2L22.4495 7.44798L38.2091 20.9247L20.7384 10.2Z" fill="#9D2A2A"/>
<path id="Vector_3" d="M43.5248 50.0879V25.9061L38.3081 22.6455L27.3379 39.9732L43.5248 50.0879Z" fill="url(#paint1_linear_49_93)"/>
<path id="Vector_4" opacity="0.15" d="M27.3379 39.9727L30.048 41.6646L38.3086 22.6455L27.3379 39.9727Z" fill="#9D2A2A"/>
<path id="Vector_5" d="M4.57471 0V24.1823L10.1707 27.4424L38.203 20.9217L4.57471 0Z" fill="url(#paint2_linear_49_93)"/>
<path id="Vector_6" d="M10.053 29.2864L0 45.1005H24.1823L38.3111 22.6455L10.053 29.2864Z" fill="url(#paint3_linear_49_93)"/>
</g>
</g>
</g>
<defs>
<linearGradient id="paint0_linear_49_93" x1="44.1618" y1="13.8124" x2="26.2261" y2="2.13338" gradientUnits="userSpaceOnUse">
<stop stop-color="#80C3E6"/>
<stop offset="1" stop-color="#3380C2"/>
</linearGradient>
<linearGradient id="paint1_linear_49_93" x1="47.3093" y1="40.7838" x2="33.9018" y2="31.9298" gradientUnits="userSpaceOnUse">
<stop stop-color="#F38649"/>
<stop offset="0.1849" stop-color="#F28147"/>
<stop offset="0.4091" stop-color="#EF7242"/>
<stop offset="0.6537" stop-color="#EA5A3A"/>
<stop offset="0.911" stop-color="#E4382E"/>
<stop offset="1" stop-color="#E12A29"/>
</linearGradient>
<linearGradient id="paint2_linear_49_93" x1="3.12991" y1="21.87" x2="28.78" y2="5.84212" gradientUnits="userSpaceOnUse">
<stop stop-color="#42AB4A"/>
<stop offset="1" stop-color="#ADD155"/>
</linearGradient>
<linearGradient id="paint3_linear_49_93" x1="8.73086" y1="50.5559" x2="29.5804" y2="17.1897" gradientUnits="userSpaceOnUse">
<stop stop-color="#42AB4A"/>
<stop offset="1" stop-color="#ADD155"/>
</linearGradient>
<clipPath id="clip0_49_93">
<rect width="50" height="50" fill="white"/>
</clipPath>
</defs>
</svg>

<svg width="50" height="50" fill="none" xmlns="http://www.w3.org/2000/svg"><g clip-path="url(#a)"><path d="M38.207 20.925 48.261 4.839H24.078L20.736 10.2l17.471 10.725Z" fill="url(#b)"/><path opacity=".15" d="m20.738 10.2 1.712-2.752 15.76 13.477L20.737 10.2Z" fill="#9D2A2A"/><path d="M43.525 50.088V25.906l-5.217-3.26-10.97 17.327 16.187 10.115Z" fill="url(#c)"/><path opacity=".15" d="m27.338 39.973 2.71 1.692 8.26-19.02-10.97 17.328Z" fill="#9D2A2A"/><path d="M4.575 0v24.182l5.596 3.26 28.032-6.52L4.575 0Z" fill="url(#d)"/><path d="M10.053 29.286 0 45.1h24.182l14.13-22.455-28.259 6.641Z" fill="url(#e)"/></g><defs><linearGradient id="b" x1="44.162" y1="13.812" x2="26.226" y2="2.133" gradientUnits="userSpaceOnUse"><stop stop-color="#80C3E6"/><stop offset="1" stop-color="#3380C2"/></linearGradient><linearGradient id="c" x1="47.309" y1="40.784" x2="33.902" y2="31.93" gradientUnits="userSpaceOnUse"><stop stop-color="#F38649"/><stop offset=".185" stop-color="#F28147"/><stop offset=".409" stop-color="#EF7242"/><stop offset=".654" stop-color="#EA5A3A"/><stop offset=".911" stop-color="#E4382E"/><stop offset="1" stop-color="#E12A29"/></linearGradient><linearGradient id="d" x1="3.13" y1="21.87" x2="28.78" y2="5.842" gradientUnits="userSpaceOnUse"><stop stop-color="#42AB4A"/><stop offset="1" stop-color="#ADD155"/></linearGradient><linearGradient id="e" x1="8.731" y1="50.556" x2="29.58" y2="17.19" gradientUnits="userSpaceOnUse"><stop stop-color="#42AB4A"/><stop offset="1" stop-color="#ADD155"/></linearGradient><clipPath id="a"><path fill="#fff" d="M0 0h50v50H0z"/></clipPath></defs></svg>
